public/img/fb_icon_dark.svg

<?xml version="1.0" encoding="UTF-8"?>
<svg width="30px" height="34px" viewBox="0 0 30 34" version="1.1" xmlns="http://www.w3.org/2000/svg" xmlns:xlink="http://www.w3.org/1999/xlink">
    <!-- Generator: Sketch 42 (36781) - http://www.bohemiancoding.com/sketch -->
    <title>FB_Icon</title>
    <desc>Created with Sketch.</desc>
    <defs>
        <polygon id="path-1" points="29.007286 33.4699454 29.007286 0.463000911 0 0.463000911 3.17091021e-14 33.4699454"></polygon>
    </defs>
    <g id="Page-1" stroke="none" stroke-width="1" fill="none" fill-rule="evenodd">
        <g id="LANDING-W/MENU" transform="translate(-436.000000, -2662.000000)">
            <g id="Footer" transform="translate(0.000000, 2568.000000)">
                <g id="Social_Icons" transform="translate(436.000000, 94.000000)">
                    <g id="FB_Icon">
                        <mask id="mask-2" fill="white">
                            <use xlink:href="#path-1"></use>
                        </mask>
                        <g id="Clip-2"></g>
                        <path d="M17.2928051,13.0986862 C17.2928051,13.2275455 17.1020264,13.3123361 16.9726093,13.3123361 L15.9707423,13.3123361 C15.2801457,13.3123361 15.0614754,13.6024089 15.0614754,14.1323497 L15.0614754,14.9858333 L16.9028802,14.9858333 C16.9647996,14.9858333 17.1025842,15.1353324 17.146653,15.1794012 C17.1901639,15.2234699 17.2928051,15.4081125 17.2928051,15.4700319 L17.2928051,17.3555055 C17.2928051,17.4849226 17.0311817,17.7749954 16.9023224,17.7749954 L15.0614754,17.7749954 L15.0614754,22.3481056 C15.0614754,22.4775228 15.0486453,22.7954872 14.919786,22.7954872 L12.9684882,22.7954872 C12.839071,22.7954872 12.8301457,22.4775228 12.8301457,22.3481056 L12.8301457,17.7749954 L11.2386498,17.7749954 C11.1097905,17.7749954 11.1566485,17.4849226 11.1566485,17.3555055 L11.1566485,15.4700319 C11.1566485,15.3406148 11.1092327,14.9858333 11.2386498,14.9858333 L12.8301457,14.9858333 L12.8301457,13.9343192 C12.8301457,12.2195423 13.8621357,11.1111293 15.5334016,11.1111293 L17.040107,11.1133607 C17.1689663,11.1139185 17.2928051,11.218791 17.2928051,11.3476503 L17.2928051,13.0986862 Z M28.2993966,8.13732468 L15.412352,0.674084699 C15.1680214,0.533510929 14.9158811,0.462666211 14.6431011,0.462666211 C14.3714367,0.462666211 14.1086976,0.533510929 13.8649249,0.674084699 L0.862966758,8.13732468 C0.37542122,8.41903005 0,8.94004554 0,9.50289845 L0,24.4293784 C0,24.9927892 0.380441712,25.5132468 0.86798725,25.7949522 L13.8348019,33.25875 C14.3229053,33.5404554 14.9443306,33.5404554 15.4318761,33.25875 L28.2893556,25.7949522 C28.7769012,25.5132468 29.007286,24.9927892 29.007286,24.4293784 L29.007286,9.50289845 C29.007286,8.94004554 28.7869422,8.41903005 28.2993966,8.13732468 L28.2993966,8.13732468 Z" id="Fill-1" fill="#4A4A4A" mask="url(#mask-2)"></path>
                    </g>
                </g>
            </g>
        </g>
    </g>
</svg>

<svg width="30" height="34" viewBox="0 0 30 34" xmlns="http://www.w3.org/2000/svg" xmlns:xlink="http://www.w3.org/1999/xlink"><title>FB_Icon</title><defs><path id="a" d="M29.007 33.47V.463H0V33.47z"/></defs><g fill="none" fill-rule="evenodd"><mask id="b" fill="#fff"><use xlink:href="#a"/></mask><path d="M17.293 13.099c0 .129-.191.213-.32.213H15.97c-.69 0-.91.29-.91.82v.854h1.842c.062 0 .2.15.244.193.043.044.146.23.146.291v1.886c0 .129-.262.419-.39.419H15.06v4.573c0 .13-.012.447-.141.447h-1.952c-.129 0-.138-.317-.138-.447v-4.573H11.24c-.13 0-.082-.29-.082-.42V15.47c0-.13-.048-.484.082-.484h1.591v-1.052c0-1.714 1.032-2.823 2.703-2.823l1.507.002c.129 0 .253.106.253.235v1.75zm11.006-4.962L15.412.674a1.51 1.51 0 0 0-.769-.211c-.272 0-.534.07-.778.211L.863 8.137C.375 8.42 0 8.94 0 9.503v14.926c0 .564.38 1.084.868 1.366l12.967 7.464c.488.281 1.11.281 1.597 0l12.857-7.464c.488-.282.718-.802.718-1.366V9.503c0-.563-.22-1.084-.708-1.366z" fill="#4A4A4A" mask="url(#b)"/></g></svg>
